_site/images/homepage/secure-upload.svg

<svg width="30" height="30" viewBox="0 0 30 30" fill="none" xmlns="http://www.w3.org/2000/svg">
<rect width="30" height="30" rx="7" fill="#65A2FD"/>
<path fill-rule="evenodd" clip-rule="evenodd" d="M19.75 10.25H15.04L14.8 9.50002C14.4811 8.59801 13.6267 7.99632 12.67 8.00002H9.25C8.00736 8.00002 7 9.00737 7 10.25V20C7 21.2426 8.00736 22.25 9.25 22.25H19.75C20.9926 22.25 22 21.2426 22 20V12.5C22 11.2574 20.9926 10.25 19.75 10.25ZM15.0325 14.2176C14.9612 14.1494 14.8771 14.0958 14.785 14.0602C14.6024 13.9851 14.3976 13.9851 14.215 14.0602C14.123 14.0958 14.0388 14.1494 13.9675 14.2176L12.4675 15.7176C12.1734 16.0117 12.1734 16.4886 12.4675 16.7826C12.7616 17.0767 13.2384 17.0767 13.5325 16.7826L13.75 16.5577V18.5001C13.75 18.9144 14.0858 19.2501 14.5 19.2501C14.9142 19.2501 15.25 18.9144 15.25 18.5001V16.5577L15.4675 16.7826C15.6083 16.9246 15.8 17.0045 16 17.0045C16.2 17.0045 16.3917 16.9246 16.5325 16.7826C16.6745 16.6418 16.7544 16.4501 16.7544 16.2501C16.7544 16.0502 16.6745 15.8585 16.5325 15.7176L15.0325 14.2176ZM19.7499 20.75C20.1642 20.75 20.4999 20.4142 20.4999 20V12.5C20.4999 12.0858 20.1642 11.75 19.7499 11.75H14.4999C14.1775 11.7508 13.8906 11.5455 13.7874 11.24L13.3824 10.01C13.2793 9.70452 12.9924 9.49916 12.6699 9.49999H9.24994C8.83573 9.49999 8.49994 9.83577 8.49994 10.25V20C8.49994 20.4142 8.83573 20.75 9.24994 20.75H19.7499Z" fill="white"/>
</svg>

<svg fill="none" height="30" viewBox="0 0 30 30" width="30" xmlns="http://www.w3.org/2000/svg"><rect fill="#65a2fd" height="30" rx="7" width="30"/><path clip-rule="evenodd" d="m19.75 10.25h-4.71l-.24-.74998c-.3189-.90201-1.1733-1.5037-2.13-1.5h-3.42c-1.24264 0-2.25 1.00735-2.25 2.24998v9.75c0 1.2426 1.00736 2.25 2.25 2.25h10.5c1.2426 0 2.25-1.0074 2.25-2.25v-7.5c0-1.2426-1.0074-2.25-2.25-2.25zm-4.7175 3.9676c-.0713-.0682-.1554-.1218-.2475-.1574-.1826-.0751-.3874-.0751-.57 0-.092.0356-.1762.0892-.2475.1574l-1.5 1.5c-.2941.2941-.2941.771 0 1.065.2941.2941.7709.2941 1.065 0l.2175-.2249v1.9424c0 .4143.3358.75.75.75s.75-.3357.75-.75v-1.9424l.2175.2249c.1408.142.3325.2219.5325.2219s.3917-.0799.5325-.2219c.142-.1408.2219-.3325.2219-.5325 0-.1999-.0799-.3916-.2219-.5325zm4.7174 6.5324c.4143 0 .75-.3358.75-.75v-7.5c0-.4142-.3357-.75-.75-.75h-5.25c-.3224.0008-.6093-.2045-.7125-.51l-.405-1.23c-.1031-.30548-.39-.51084-.7125-.51001h-3.41996c-.41421 0-.75.33578-.75.75001v9.75c0 .4142.33579.75.75.75z" fill="#fff" fill-rule="evenodd"/></svg>
